X:1
T:Title
%%score { 1 | 2 }
L:1/8
Q:1/4=100
M:2/4
K:D
V:1 treble nm="Grand Piano"
V:2 bass 
V:1
 [FA]2 [FA][FA] | [GB][FA] [DF]2 | [CE]2 [B,D][CE] | [DF]4 | [FA]2 [FA][FA] | [GB][FA] [DF]2 | %6
w: Wm.~B.~Bradbury * *||||||
 [CE]2 [B,D][CE] | [DF]4 | [Fd]2 [FA][FA] | [GB][GB] [FA]2 | [Fd]2 [FA][FA] | [GB][GB] [FA]2 | %12
w: ||||||
 [Ad]2 ee | fe d2 | e2 dc | [Fd]4 |] %16
w: ||||
V:2
 [D,D]2 [D,D][D,D] | [D,D][D,D] [D,A,]2 | [A,,A,]2 [A,,A,][A,,A,] | [D,A,]4 | [D,D]2 [D,D][D,D] | %5
 [D,D][D,D] [D,A,]2 | [A,,A,]2 [A,,A,][A,,A,] | [D,A,]4 | [D,A,]2 [D,D][D,D] | [G,D][G,D] [D,D]2 | %10
 [D,A,]2 [D,D][D,D] | [G,D][G,D] [D,D]2 | [F,D]2[K:treble] [A,CA][A,CA] | [DA][A,CG] [B,DF]2 | %14
 [G,B,G]2 [A,F][K:bass][A,E] | [D,A,]4 |] %16

